X: 2055
T: Cedar Bluffs
R: hornpipe
C: Rick Gagne
N: 1991 on whistle
M: 4/4
Q: 1/4=160
K: D
de | "D"fA~A2 "A"eA~A2 | "Bm"fAaA "A7"gAeA | "D"fA~A2 "A"eA~A2 |\
"Bm"dfe/d/c "G"dcBA | 
"D"fA~A2 "A"eA~A2 | "Bm"fAaA "A7"gAeA | "D"fA~A2 "A"eA~A2 | "G"dfe/d/c "D"d2 :|
ef | "Em"gfga "G"bgab | "F#m"c'afe "D"fdef | "Em"gfga "G"bgab | "F#m"c'afe "D"f2ef | 
"Em"gfga "G"bgab | "F#m"c'afd "Bm"bfdB | "G"gdBG "F#m"fcAF | "Bm"Bdc/B/A B2 :|
